source/media/icon/au.svg

<?xml version="1.0" encoding="UTF-8" standalone="no"?>
<svg
   data-name="Layer 1"
   id="Layer_1"
   viewBox="0 0 512 512"
   version="1.1"
   sodipodi:docname="au.svg"
   inkscape:version="1.1.2 (0a00cf5, 2022-02-04)"
   xmlns:inkscape="http://www.inkscape.org/namespaces/inkscape"
   xmlns:sodipodi="http://sodipodi.sourceforge.net/DTD/sodipodi-0.dtd"
   xmlns="http://www.w3.org/2000/svg"
   xmlns:svg="http://www.w3.org/2000/svg">
  <sodipodi:namedview
     id="namedview1639"
     pagecolor="#ffffff"
     bordercolor="#999999"
     borderopacity="1"
     inkscape:pageshadow="0"
     inkscape:pageopacity="0"
     inkscape:pagecheckerboard="0"
     showgrid="false"
     inkscape:zoom="1.578125"
     inkscape:cx="256"
     inkscape:cy="256"
     inkscape:window-width="1920"
     inkscape:window-height="1016"
     inkscape:window-x="0"
     inkscape:window-y="28"
     inkscape:window-maximized="1"
     inkscape:current-layer="Layer_1" />
  <defs
     id="defs1628">
    <style
       id="style1626">.cls-1{fill:#002620;}.cls-2{fill:#d8faf4;}</style>
  </defs>
  <path
     id="rect1630"
     style="fill:#000000"
     class="cls-1"
     d="M 136.06055 46.419922 C 82.843305 46.419922 40 89.263229 40 142.48047 L 40 369.5293 C 40 422.74654 82.843305 465.58984 136.06055 465.58984 L 375.93945 465.58984 C 429.15669 465.58984 472 422.74654 472 369.5293 L 472 142.48047 C 472 89.263229 429.15669 46.419922 375.93945 46.419922 L 136.06055 46.419922 z M 165.2207 164.39062 L 205.85938 164.39062 C 207.12938 164.39062 207.63938 164.64016 207.85938 165.91016 L 265.51953 328.49023 C 266.02953 329.76023 265.77 330.7793 264.25 330.7793 L 231.25 330.7793 A 2.57 2.57 0 0 1 228.44922 329 L 215.5 291.15039 L 156.81055 291.17969 L 144.60938 328.7793 A 2.74 2.74 0 0 1 141.82031 330.7793 L 112.34961 330.7793 C 110.56961 330.7793 110.06961 329.78023 110.34961 328.24023 L 161.16016 181.66016 C 162.16016 178.87016 163.15922 175.81992 163.69922 166.16992 A 1.7 1.7 0 0 1 165.2207 164.39062 z M 185.75 193.89062 C 181.68 210.89062 172.53969 238.88969 165.92969 259.42969 L 206.08984 259.42969 C 200.99984 242.65969 190.85 211.92062 186 193.89062 L 185.75 193.89062 z M 278.98047 204.58984 L 309.98047 204.58984 C 311.51047 204.58984 311.75977 205.08984 311.75977 206.58984 L 311.75977 280.25977 C 311.75977 293.96977 317.60008 302.85938 331.58008 302.85938 A 28.12 28.12 0 0 0 351.39062 295.5 L 351.39062 206.58984 C 351.39062 205.05984 352.14969 204.58984 353.92969 204.58984 L 384.66992 204.58984 C 386.44992 204.58984 386.66992 205.08984 386.66992 206.58984 L 386.69922 302.60938 A 232.17 232.17 0 0 0 388.2207 328.7793 C 388.4807 330.2993 387.71945 330.7793 385.93945 330.7793 L 359 330.7793 C 357 330.7793 356.45922 330.27 355.94922 329 C 355.43922 326.71 354.67969 323.40914 354.42969 321.11914 C 343.24969 330.77914 330.55086 333.32031 319.63086 333.32031 C 294.22086 333.32031 276.69922 319.32031 276.69922 284.32031 L 276.69922 206.58984 C 276.69922 204.80984 277.20047 204.58984 278.98047 204.58984 z " />
</svg>

<?xml version="1.0" encoding="UTF-8" standalone="no"?>
<svg
   data-name="Layer 1"
   id="Layer_1"
   viewBox="0 0 512 512"
   version="1.1"
   sodipodi:docname="au.svg"
   inkscape:version="1.1.2 (0a00cf5, 2022-02-04)"
   xmlns:inkscape="http://www.inkscape.org/namespaces/inkscape"
   xmlns:sodipodi="http://sodipodi.sourceforge.net/DTD/sodipodi-0.dtd"
   xmlns="http://www.w3.org/2000/svg"
   xmlns:svg="http://www.w3.org/2000/svg">
  <sodipodi:namedview
     id="namedview1639"
     pagecolor="#ffffff"
     bordercolor="#999999"
     borderopacity="1"
     inkscape:pageshadow="0"
     inkscape:pageopacity="0"
     inkscape:pagecheckerboard="0"
     showgrid="false"
     inkscape:zoom="1.578125"
     inkscape:cx="256"
     inkscape:cy="256"
     inkscape:window-width="1920"
     inkscape:window-height="1016"
     inkscape:window-x="0"
     inkscape:window-y="28"
     inkscape:window-maximized="1"
     inkscape:current-layer="Layer_1" />
  <defs
     id="defs1628">
    <style
       id="style1626">.cls-1{fill:#002620;}.cls-2{fill:#d8faf4;}</style>
  </defs>
  <rect
     class="cls-1"
     height="419.17"
     rx="96.06"
     width="432"
     x="40"
     y="46.42"
     id="rect1630"
     style="fill:#000000" />
  <rect
     class="cls-1"
     height="379.17"
     rx="76.06"
     width="392"
     x="60"
     y="66.42"
     id="rect1632"
     style="fill:#000000" />
  <path
     class="cls-2"
     d="M156.81,291.18l-12.2,37.6a2.74,2.74,0,0,1-2.79,2H112.35c-1.78,0-2.28-1-2-2.54l50.81-146.58c1-2.79,2-5.84,2.54-15.49a1.7,1.7,0,0,1,1.52-1.78h40.64c1.27,0,1.78.25,2,1.52l57.66,162.58c.51,1.27.25,2.29-1.27,2.29h-33a2.57,2.57,0,0,1-2.8-1.78l-12.95-37.85Zm49.28-31.75C201,242.66,190.85,211.92,186,193.89h-.25c-4.07,17-13.21,45-19.82,65.54Z"
     id="path1634"
     style="fill:#ffffff" />
  <path
     class="cls-2"
     d="M386.7,302.61a232.17,232.17,0,0,0,1.52,26.17c.26,1.52-.5,2-2.28,2H359c-2,0-2.54-.51-3.05-1.78-.51-2.29-1.27-5.59-1.52-7.88-11.18,9.66-23.88,12.2-34.8,12.2-25.41,0-42.93-14-42.93-49V206.59c0-1.78.5-2,2.28-2h31c1.53,0,1.78.5,1.78,2v73.67c0,13.71,5.84,22.6,19.82,22.6a28.12,28.12,0,0,0,19.81-7.36V206.59c0-1.53.76-2,2.54-2h30.74c1.78,0,2,.5,2,2Z"
     id="path1636"
     style="fill:#ffffff" />
</svg>
